; generated by PrusaSlicer 2.7.3+win64 on 2024-04-02 at 09:00:05 UTC


;
;
; 

; external perimeters extrusion width = 0.45mm
; perimeters extrusion width = 0.45mm
; infill extrusion width = 0.45mm
; solid infill extrusion width = 0.45mm
; top infill extrusion width = 0.40mm
; support material extrusion width = 0.35mm
; first layer extrusion width = 0.42mm

M73 P0 R176
M73 Q0 S179
M201 X1000 Y1000 Z200 E5000 ; sets maximum accelerations, mm/sec^2
M203 X200 Y200 Z12 E120 ; sets maximum feedrates, mm / sec
M204 S1250 T1250 ; sets acceleration (S) and retract acceleration (R), mm/sec^2
M205 X8.00 Y8.00 Z0.40 E4.50 ; sets the jerk limits, mm/sec
M205 S0 T0 ; sets the minimum extruding and travel feed rate, mm/sec

; printing object Top Cover.stl id:0 copy 0
; stop printing object Top Cover.stl id:0 copy 0

;TYPE:Custom
M862.3 P "MK3S" ; printer model check
M862.1 P0.4 ; nozzle diameter check
M115 U3.13.2 ; tell printer latest fw version
G90 ; use absolute coordinates
M83 ; extruder relative mode
M104 S215 ; set extruder temp
M140 S60 ; set bed temp
M190 S60 ; wait for bed temp
M109 S215 ; wait for extruder temp
G28 W ; home all without mesh bed level
G80 X35.5344 Y49.0344 W178.931 H111.931 ; mesh bed levelling

G1 Z0.2 F720
G1 Y-3 F1000 ; go outside print area
G92 E0
G1 X60 E9 F1000 ; intro line
G1 X100 E12.5 F1000 ; intro line

G92 E0
M221 S95

; Don't change E values below. Excessive value can damage the printer.

M907 E538 ; set extruder motor current
G21 ; set units to millimeters
G90 ; use absolute coordinates
M83 ; use relative distances for extrusion
M900 K0.05 ; Filament gcode LA 1.5
M900 K30 ; Filament gcode LA 1.0

M107
;LAYER_CHANGE
;Z:0.2
;HEIGHT:0.2
G1 E-.8 F2100
G1 Z.6 F720
G1 X42.124 Y52.565 F10800
G1 Z.2 F720
G1 E.8 F2100
M204 S800
;TYPE:Skirt/Brim
;WIDTH:0.42
G1 F1200
G1 X42.75 Y52.111 E.02425
G1 X44.789 Y50.907 E.07425
G1 X47.161 Y49.958 E.0801
G1 X49.652 Y49.393 E.08009
G1 X51.908 Y49.223 E.07094
G1 X198.186 Y49.225 E4.58644
G1 X200.744 Y49.455 E.08053
G1 X203.395 Y50.147 E.08591
G1 X205.568 Y51.089 E.07426
G1 X207.25 Y52.111 E.06171
G1 X209.23 Y53.722 E.08003
G1 X211.05 Y55.771 E.08593
G1 X212.411 Y57.932 E.08007
G1 X213.542 Y60.661 E.09262
G1 X214.129 Y63.337 E.0859
G1 X214.277 Y65.408 E.0651
G1 X214.262 Y144.979 E2.49489
G1 X214.045 Y147.244 E.07134
G1 X213.592 Y149.159 E.0617
G1 X213.353 Y149.895 E.02426
G1 X212.411 Y152.068 E.07426
G1 X211.286 Y153.905 E.06754
G1 X209.778 Y155.73 E.07423
G1 X207.876 Y157.435 E.08009
G1 X207.25 Y157.889 E.02425
G1 X205.211 Y159.093 E.07425
G1 X202.839 Y160.042 E.0801
G1 X200.348 Y160.607 E.08009
G1 X198.092 Y160.777 E.07094
G1 X51.814 Y160.775 E4.58644
G1 X49.652 Y160.607 E.06799
G1 X47.341 Y160.092 E.07424
G1 X46.605 Y159.853 E.02426
G1 X44.432 Y158.911 E.07426
G1 X42.595 Y157.786 E.06754
G1 X40.77 Y156.278 E.07423
G1 X40.222 Y155.73 E.0243
G1 X38.611 Y153.75 E.08003
G1 X37.407 Y151.711 E.07425
G1 X36.458 Y149.339 E.0801
G1 X35.893 Y146.848 E.08009
G1 X35.725 Y144.686 E.06799
G1 X35.733 Y65.114 E2.49492
G1 X35.893 Y63.152 E.06172
M73 Q0 S178
G1 X36.408 Y60.841 E.07424
G1 X36.647 Y60.105 E.02426
G1 X37.589 Y57.932 E.07426
G1 X38.714 Y56.095 E.06754
G1 X40.222 Y54.27 E.07423
G1 X42.08 Y52.605 E.07822
M204 S1000
;WIPE_START
G1 F8640
G1 X42.124 Y52.565 E-.01373
G1 X42.75 Y52.111 E-.17856
G1 X44.789 Y50.907 E-.54676
G1 X45.034 Y50.809 E-.06095
;WIPE_END
G1 Z.6 F720
G1 X43.813 Y54.651 F10800
G1 Z.2 F720
G1 E.8 F2100
M204 S800
G1 F1200
G1 X44.052 Y54.449 E.00981
G1 X45.769 Y53.397 E.06314
G1 X47.85 Y52.536 E.07061
G1 X49.841 Y52.06 E.06419
G1 X51.916 Y51.887 E.06529
G1 X198.093 Y51.887 E4.58328
G1 X200.296 Y52.083 E.06935
M73 P0 R175
G1 X202.414 Y52.623 E.06853
G1 X204.17 Y53.366 E.05978
G1 X205.823 Y54.36 E.06048
G1 X207.534 Y55.784 E.0698
G1 X209.043 Y57.54 E.07259
G1 X210.233 Y59.528 E.07265
G1 X211.012 Y61.501 E.06651
G1 X211.437 Y63.322 E.05863
G1 X211.605 Y65.202 E.05918
G1 X211.604 Y144.806 E2.49593
G1 X211.425 Y146.752 E.06127
G1 X210.959 Y148.668 E.06183
G1 X210.127 Y150.684 E.06838
G1 X209.048 Y152.452 E.06494
G1 X207.593 Y154.158 E.0703
G1 X205.948 Y155.551 E.06759
G1 X204.23 Y156.603 E.06316
G1 X202.15 Y157.464 E.07058
G1 X200.159 Y157.94 E.06419
G1 X198.084 Y158.113 E.06529
G1 X51.917 Y158.113 E4.58296
G1 X49.929 Y157.954 E.06253
G1 X48.001 Y157.513 E.06201
G1 X45.711 Y156.573 E.07762
G1 X43.881 Y155.426 E.06772
G1 X42.325 Y154.075 E.06461
G1 X40.99 Y152.505 E.06462
G1 X39.899 Y150.734 E.06522
G1 X39.036 Y148.65 E.07072
G1 X38.56 Y146.659 E.06419
G1 X38.387 Y144.584 E.06529
G1 X38.392 Y65.279 E2.48655
G1 X38.57 Y63.278 E.06299
G1 X39.041 Y61.333 E.06275
G1 X39.873 Y59.316 E.06841
G1 X40.952 Y57.548 E.06494
G1 X42.407 Y55.842 E.0703
G1 X43.767 Y54.69 E.05588
M204 S1000
G1 X43.767 Y54.69 F10800
G1 X44.009 Y54.976
M204 S800
G1 F1200
G1 X44.261 Y54.763 E.01035
G1 X45.928 Y53.74 E.06132
G1 X47.98 Y52.89 E.06964
G1 X49.915 Y52.43 E.06236
G1 X51.924 Y52.264 E.06321
G1 X198.085 Y52.264 E4.58278
G1 X200.218 Y52.452 E.06714
G1 X202.281 Y52.976 E.06674
G1 X204.011 Y53.708 E.0589
G1 X205.616 Y54.675 E.05875
G1 X207.28 Y56.063 E.06794
G1 X208.728 Y57.748 E.06966
G1 X209.888 Y59.681 E.07068
G1 X210.648 Y61.6 E.06472
G1 X211.067 Y63.394 E.05776
G1 X211.228 Y65.227 E.05769
G1 X211.228 Y144.78 E2.49433
G1 X211.051 Y146.703 E.06055
G1 X210.596 Y148.564 E.06007
G1 X209.797 Y150.501 E.0657
G1 X208.752 Y152.219 E.06305
G1 X207.316 Y153.902 E.06937
G1 X205.738 Y155.238 E.06483
G1 X204.072 Y156.26 E.06128
G1 X202.02 Y157.11 E.06964
G1 X200.085 Y157.57 E.06236
G1 X198.076 Y157.736 E.06321
G1 X51.924 Y157.736 E4.58249
G1 X50 Y157.583 E.06052
G1 X48.1 Y157.148 E.06111
G1 X45.898 Y156.245 E.07462
G1 X44.117 Y155.131 E.06587
G1 X42.602 Y153.82 E.06282
G1 X41.303 Y152.295 E.06281
G1 X40.241 Y150.575 E.06338
G1 X39.39 Y148.52 E.06974
G1 X38.93 Y146.585 E.06236
G1 X38.764 Y144.576 E.06321
G1 X38.769 Y65.288 E2.48602
G1 X38.944 Y63.326 E.06176
G1 X39.404 Y61.436 E.06099
G1 X40.203 Y59.499 E.0657
G1 X41.248 Y57.781 E.06305
G1 X42.684 Y56.099 E.06934
G1 X43.963 Y55.015 E.05257
M204 S1000
G1 X43.963 Y55.015 F10800
G1 X44.206 Y55.301
M204 S800
G1 F1200
G1 X44.471 Y55.077 E.01088
G1 X46.086 Y54.083 E.05946
G1 X48.111 Y53.244 E.06873
G1 X49.987 Y52.8 E.06045
G1 X51.932 Y52.641 E.06119
G1 X198.076 Y52.641 E4.58224
G1 X200.14 Y52.821 E.06496
M73 Q0 S177
G1 X202.147 Y53.329 E.06491
G1 X203.828 Y54.038 E.0572
G1 X205.409 Y54.991 E.05788
G1 X207.026 Y56.342 E.06607
G1 X208.431 Y57.981 E.06769
G1 X209.543 Y59.834 E.06776
G1 X210.284 Y61.7 E.06295
G1 X210.692 Y63.441 E.05607
G1 X210.852 Y65.252 E.057
G1 X210.852 Y144.754 E2.49273
G1 X210.681 Y146.627 E.05897
M73 P0 R174
G1 X210.233 Y148.461 E.05919
G1 X209.467 Y150.318 E.06298
G1 X208.455 Y151.986 E.06117
G1 X207.039 Y153.645 E.06839
G1 X205.528 Y154.924 E.06207
G1 X203.914 Y155.918 E.05943
G1 X201.889 Y156.756 E.06871
G1 X200.013 Y157.2 E.06045
G1 X198.068 Y157.359 E.06119
G1 X51.932 Y157.359 E4.58199
G1 X50.044 Y157.209 E.05938
M73 P1 R174
M73 Q1 S177
G1 X48.2 Y156.784 E.05933
G1 X46.084 Y155.916 E.07171
G1 X44.352 Y154.836 E.064
G1 X42.88 Y153.564 E.061
G1 X41.616 Y152.084 E.06102
G1 X40.584 Y150.417 E.06147
G1 X39.744 Y148.389 E.06883
G1 X39.3 Y146.513 E.06045
G1 X39.141 Y144.568 E.06119
G1 X39.146 Y65.296 E2.48552
G1 X39.314 Y63.401 E.05965
G1 X39.767 Y61.539 E.06008
G1 X40.533 Y59.682 E.06298
G1 X41.545 Y58.014 E.06117
G1 X42.961 Y56.355 E.06839
G1 X44.16 Y55.34 E.04926
M204 S1000
G1 X44.16 Y55.34 F10800
G1 X44.402 Y55.626
M204 S800
G1 F1200
G1 X44.681 Y55.39 E.01146
G1 X46.244 Y54.425 E.05759
G1 X48.241 Y53.598 E.06777
G1 X50.06 Y53.171 E.05858
G1 X51.939 Y53.018 E.05911
G1 X198.068 Y53.018 E4.58177
G1 X200.092 Y53.195 E.0637
G1 X202.014 Y53.682 E.06217
G1 X203.669 Y54.38 E.05632
G1 X205.202 Y55.306 E.05615
G1 X206.75 Y56.6 E.06326
G1 X208.116 Y58.19 E.06572
G1 X209.199 Y59.989 E.06584
G1 X209.92 Y61.8 E.06112
G1 X210.322 Y63.514 E.0552
G1 X210.476 Y65.277 E.05549
G1 X210.475 Y144.729 E2.49116
G1 X210.307 Y146.579 E.05824
G1 X209.87 Y148.357 E.05741
G1 X209.137 Y150.135 E.0603
G1 X208.158 Y151.753 E.05929
G1 X206.762 Y153.389 E.06743
G1 X205.318 Y154.611 E.05931
G1 X203.755 Y155.575 E.05758
G1 X201.759 Y156.402 E.06774
G1 X199.94 Y156.829 E.05858
G1 X198.061 Y156.982 E.05911
G1 X51.939 Y156.982 E4.58155
G1 X50.088 Y156.834 E.05822
G1 X48.3 Y156.421 E.05754
G1 X46.242 Y155.574 E.06978
G1 X44.587 Y154.541 E.06117
G1 X43.157 Y153.308 E.0592
G1 X41.929 Y151.873 E.05922
G1 X40.926 Y150.258 E.05961
G1 X40.098 Y148.259 E.06784
G1 X39.671 Y146.44 E.05858
G1 X39.518 Y144.561 E.05911
G1 X39.523 Y65.305 E2.48502
G1 X39.688 Y63.449 E.05842
G1 X40.13 Y61.643 E.0583
G1 X40.863 Y59.865 E.0603
G1 X41.842 Y58.247 E.05929
G1 X43.238 Y56.612 E.06741
G1 X44.356 Y55.665 E.04594
M204 S1000
G1 X44.356 Y55.665 F10800
G1 X44.598 Y55.951
M204 S800
G1 F1200
G1 X44.891 Y55.703 E.01204
G1 X46.403 Y54.768 E.05574
G1 X48.371 Y53.953 E.06679
G1 X50.132 Y53.541 E.05671
G1 X51.947 Y53.395 E.05709
G1 X198.06 Y53.395 E4.58127
G1 X200.015 Y53.565 E.06153
G1 X201.881 Y54.035 E.06033
G1 X203.486 Y54.71 E.05459
G1 X204.995 Y55.621 E.05527
G1 X206.496 Y56.879 E.06141
G1 X207.819 Y58.423 E.06375
G1 X208.854 Y60.143 E.06294
G1 X209.557 Y61.9 E.05934
G1 X209.952 Y63.586 E.05429
G1 X210.099 Y65.301 E.05397
G1 X210.099 Y144.704 E2.48963
G1 X209.937 Y146.503 E.05663
M73 Q1 S176
G1 X209.507 Y148.254 E.05653
G1 X208.807 Y149.952 E.05759
G1 X207.861 Y151.52 E.05742
G1 X206.485 Y153.132 E.06645
G1 X205.108 Y154.297 E.05655
G1 X203.597 Y155.233 E.05573
G1 X201.629 Y156.047 E.06678
G1 X199.868 Y156.459 E.05671
G1 X198.053 Y156.605 E.05709
G1 X51.946 Y156.605 E4.58108
G1 X50.159 Y156.463 E.05621
M73 P1 R173
G1 X48.4 Y156.057 E.0566
G1 X46.4 Y155.231 E.06785
G1 X44.822 Y154.246 E.05832
G1 X43.434 Y153.051 E.05743
G1 X42.241 Y151.661 E.05743
G1 X41.269 Y150.099 E.05768
G1 X40.453 Y148.129 E.06686
G1 X40.041 Y146.368 E.05671
G1 X39.895 Y144.553 E.05709
G1 X39.9 Y65.313 E2.48451
G1 X40.063 Y63.497 E.05717
G1 X40.493 Y61.747 E.0565
G1 X41.193 Y60.048 E.05762
G1 X42.139 Y58.48 E.05742
G1 X43.515 Y56.868 E.06645
G1 X44.553 Y55.99 E.04263
M204 S1000
G1 X44.553 Y55.99 F10800
G1 X44.795 Y56.276
M204 S800
G1 F1200
G1 X45.102 Y56.016 E.01261
G1 X46.561 Y55.11 E.05385
G1 X48.501 Y54.307 E.06583
G1 X50.203 Y53.911 E.05479
G1 X51.954 Y53.772 E.05507
G1 X198.052 Y53.772 E4.5808
G1 X199.938 Y53.934 E.05935
G1 X201.748 Y54.388 E.05851
G1 X203.326 Y55.052 E.05368
G1 X204.787 Y55.936 E.05354
G1 X206.242 Y57.158 E.05958
G1 X207.505 Y58.631 E.06084
G1 X208.51 Y60.297 E.061
G1 X209.193 Y62 E.05753
G1 X209.577 Y63.632 E.05257
G1 X209.723 Y65.325 E.05328
G1 X209.723 Y144.679 E2.48809
G1 X209.568 Y146.427 E.05502
G1 X209.145 Y148.15 E.05563
G1 X208.476 Y149.77 E.05495
G1 X207.564 Y151.287 E.0555
G1 X206.208 Y152.876 E.0655
G1 X204.897 Y153.984 E.05382
G1 X203.438 Y154.89 E.05385
G1 X201.499 Y155.693 E.0658
G1 X199.797 Y156.089 E.05479
G1 X198.046 Y156.228 E.05507
G1 X51.954 Y156.228 E4.58061
G1 X50.203 Y156.089 E.05507
G1 X48.5 Y155.693 E.05482
G1 X46.559 Y154.889 E.06587
G1 X45.057 Y153.951 E.05552
G1 X43.71 Y152.795 E.05565
G1 X42.553 Y151.449 E.05565
G1 X41.611 Y149.941 E.05575
G1 X40.807 Y148 E.06587
G1 X40.411 Y146.297 E.05482
G1 X40.272 Y144.546 E.05507
G1 X40.277 Y65.321 E2.48404
G1 X40.432 Y63.573 E.05502
G1 X40.855 Y61.85 E.05563
G1 X41.524 Y60.23 E.05495
G1 X42.436 Y58.713 E.0555
G1 X43.791 Y57.124 E.06548
G1 X44.749 Y56.315 E.03931
M204 S1000
G1 X44.749 Y56.315 F10800
G1 X44.992 Y56.601
M204 S800
G1 F1200
G1 X45.313 Y56.329 E.01319
G1 X46.747 Y55.439 E.05292
G1 X48.601 Y54.671 E.06292
G1 X50.275 Y54.282 E.05389
G1 X51.961 Y54.149 E.05303
G1 X198.044 Y54.149 E4.58033
G1 X199.862 Y54.304 E.05721
G1 X201.615 Y54.741 E.05665
G1 X203.143 Y55.382 E.05195
G1 X204.579 Y56.251 E.05263
G1 X205.987 Y57.436 E.0577
G1 X207.208 Y58.864 E.05891
G1 X208.166 Y60.452 E.05815
G1 X208.829 Y62.101 E.05573
G1 X209.207 Y63.705 E.05167
G1 X209.346 Y65.349 E.05173
G1 X209.346 Y144.654 E2.48655
G1 X209.198 Y146.352 E.05344
G1 X208.79 Y148.019 E.05381
G1 X208.133 Y149.613 E.05406
G1 X207.249 Y151.079 E.05368
G1 X205.953 Y152.598 E.06261
G1 X204.686 Y153.671 E.05206
G1 X203.253 Y154.562 E.05291
G1 X201.399 Y155.329 E.06291
G1 X199.725 Y155.718 E.05389
G1 X198.039 Y155.851 E.05303
G1 X51.961 Y155.851 E4.58017
G1 X50.275 Y155.718 E.05303
M73 P2 R173
M73 Q1 S175
G1 X48.601 Y155.329 E.05389
G1 X46.745 Y154.56 E.06299
G1 X45.291 Y153.655 E.0537
G1 X43.987 Y152.538 E.05384
G1 X42.849 Y151.214 E.05474
G1 X41.939 Y149.754 E.05394
G1 X41.171 Y147.899 E.06295
M73 Q2 S175
G1 X40.782 Y146.225 E.05389
G1 X40.649 Y144.539 E.05303
G1 X40.654 Y65.346 E2.48304
G1 X40.802 Y63.648 E.05344
M73 P2 R172
G1 X41.21 Y61.981 E.05381
G1 X41.867 Y60.387 E.05406
G1 X42.751 Y58.921 E.05368
G1 X44.047 Y57.402 E.06261
G1 X44.946 Y56.64 E.03695
M204 S1000
G1 X44.946 Y56.64 F10800
G1 X45.19 Y56.928
M204 S800
G1 F1200
G1 X45.546 Y56.626 E.01464
G1 X46.933 Y55.767 E.05115
G1 X48.702 Y55.034 E.06004
G1 X50.319 Y54.657 E.05206
G1 X51.969 Y54.526 E.0519
G1 X198.036 Y54.526 E4.57983
G1 X199.786 Y54.673 E.05506
G1 X201.483 Y55.095 E.05483
G1 X202.984 Y55.725 E.05104
G1 X204.37 Y56.566 E.05083
G1 X205.732 Y57.714 E.05585
G1 X206.893 Y59.073 E.05604
G1 X207.822 Y60.608 E.05626
G1 X208.465 Y62.202 E.05389
G1 X208.833 Y63.751 E.04992
G1 X208.97 Y65.373 E.05104
G1 X208.97 Y144.629 E2.48502
G1 X208.824 Y146.304 E.05272
G1 X208.428 Y147.915 E.05202
G1 X207.79 Y149.455 E.05227
G1 X206.934 Y150.871 E.05188
G1 X205.697 Y152.32 E.05974
G1 X204.453 Y153.375 E.05114
G1 X203.067 Y154.233 E.05111
G1 X201.298 Y154.966 E.06004
G1 X199.681 Y155.343 E.05206
G1 X198.031 Y155.474 E.0519
G1 X51.969 Y155.474 E4.57967
G1 X50.319 Y155.343 E.0519
G1 X48.702 Y154.966 E.05206
G1 X46.931 Y154.232 E.06011
G1 X45.503 Y153.342 E.05276
G1 X44.243 Y152.261 E.05205
G1 X43.145 Y150.98 E.0529
G1 X42.268 Y149.569 E.05209
G1 X41.534 Y147.798 E.06011
G1 X41.157 Y146.181 E.05206
G1 X41.026 Y144.531 E.0519
G1 X41.03 Y65.371 E2.48201
G1 X41.177 Y63.696 E.05272
G1 X41.572 Y62.085 E.05201
G1 X42.21 Y60.545 E.05227
G1 X43.066 Y59.13 E.05185
G1 X44.302 Y57.68 E.05974
G1 X45.144 Y56.967 E.03459
M204 S1000
G1 X45.144 Y56.967 F10800
G1 X45.387 Y57.253
M204 S800
G1 F1200
G1 X45.757 Y56.939 E.01522
G1 X47.118 Y56.096 E.0502
G1 X48.803 Y55.398 E.05719
G1 X50.363 Y55.032 E.05024
G1 X51.976 Y54.903 E.05074
G1 X198.028 Y54.903 E4.57936
G1 X199.71 Y55.043 E.05292
G1 X201.351 Y55.448 E.053
G1 X202.801 Y56.054 E.04927
G1 X204.162 Y56.88 E.04992
G1 X205.456 Y57.971 E.05307
G1 X206.579 Y59.282 E.05412
G1 X207.478 Y60.764 E.05435
G1 X208.102 Y62.303 E.05207
G1 X208.462 Y63.824 E.04901
G1 X208.594 Y65.396 E.04946
G1 X208.594 Y144.605 E2.48354
G1 X208.454 Y146.229 E.05111
G1 X208.074 Y147.785 E.05022
G1 X207.46 Y149.273 E.05047
G1 X206.62 Y150.662 E.0509
G1 X205.442 Y152.043 E.05691
G1 X204.22 Y153.078 E.05021
G1 X202.882 Y153.904 E.0493
G1 X201.197 Y154.602 E.05719
G1 X199.637 Y154.968 E.05024
G1 X198.024 Y155.097 E.05074
G1 X51.976 Y155.097 E4.57923
G1 X50.363 Y154.968 E.05074
G1 X48.803 Y154.602 E.05024
G1 X47.117 Y153.904 E.05721
G1 X45.737 Y153.047 E.05093
G1 X44.5 Y151.985 E.05112
G1 X43.441 Y150.746 E.0511
G1 X42.596 Y149.383 E.05028
G1 X41.898 Y147.697 E.05721
G1 X41.532 Y146.137 E.05024
G1 X41.403 Y144.524 E.05074
G1 X41.406 Y65.395 E2.48103
G1 X41.546 Y63.771 E.05111
G1 X41.926 Y62.215 E.05022
G1 X42.54 Y60.727 E.05047
G1 X43.38 Y59.338 E.0509
G1 X44.558 Y57.957 E.05691
G1 X45.342 Y57.292 E.03223
M204 S1000
G1 X45.342 Y57.292 F10800
G1 X45.586 Y57.579
M204 S800
G1 F1200
G1 X45.99 Y57.236 E.01662
G1 X47.303 Y56.425 E.04839
G1 X48.904 Y55.762 E.05433
G1 X50.435 Y55.402 E.04931
G1 X51.984 Y55.28 E.04872
G1 X198.021 Y55.28 E4.57889
G1 X199.664 Y55.418 E.0517
M73 P2 R171
M73 Q2 S174
G1 X201.219 Y55.802 E.05022
G1 X202.642 Y56.397 E.04836
G1 X203.954 Y57.195 E.04815
G1 X205.2 Y58.249 E.05117
G1 X206.282 Y59.515 E.05222
G1 X207.135 Y60.92 E.05154
G1 X207.738 Y62.404 E.05022
G1 X208.092 Y63.897 E.04811
G1 X208.217 Y65.419 E.04788
G1 X208.217 Y144.582 E2.4821
G1 X208.084 Y146.155 E.0495
G1 X207.72 Y147.655 E.0484
